images/icon-print.svg

<svg height="20" viewBox="0 0 20 20" width="20" xmlns="http://www.w3.org/2000/svg"><path d="m17.8498403 14.5353871h-2.2715655v3.3694474c0 .6362032-.5149441 1.1519478-1.1501598 1.1519478h-8.913738c-.63521569 0-1.15015975-.5157446-1.15015975-1.1519478v-3.3694474h-2.21405751c-.63521568 0-1.15015974-.5157446-1.15015974-1.1519479v-6.68129741c0-.63620322.51494406-1.15194784 1.15015974-1.15194784h15.69968056c.6352156 0 1.1501597.51574462 1.1501597 1.15194784v6.68129741c0 .6362033-.5149441 1.1519479-1.1501597 1.1519479zm-1.1214058-7.8908427c-.6193353 0-1.1214057.502851-1.1214057 1.12314914s.5020704 1.12314914 1.1214057 1.12314914 1.1214058-.502851 1.1214058-1.12314914-.5020705-1.12314914-1.1214058-1.12314914zm-11.2428115 4.5213953h9.028754v6.7676935h-9.028754zm1.15015975 1.1519478h6.69968055v1.0943504h-6.69968055zm0 2.2462983h5.60702875v1.0943504h-5.60702875zm-1.09265176-13.5641858h8.91373801c.6352157 0 1.1501598.51574461 1.1501598 1.15194784v2.24629828h-1.0894026l-.0032492-2.24629828h-9.028754l.00186901 2.24629828h-1.09452076v-2.24629828c0-.63620323.51494405-1.15194784 1.15015974-1.15194784z" fill="#fff" fill-rule="evenodd"/></svg>

<?xml version="1.0" encoding="UTF-8" standalone="no"?>
<svg width="20px" height="20px" viewBox="0 0 20 20" version="1.1" xmlns="http://www.w3.org/2000/svg" xmlns:xlink="http://www.w3.org/1999/xlink">
    <!-- Generator: Sketch 41 (35326) - http://www.bohemiancoding.com/sketch -->
    <title>icon-print</title>
    <desc>Created with Sketch.</desc>
    <defs></defs>
    <g id="Page-1" stroke="none" stroke-width="1" fill="none" fill-rule="evenodd">
        <g id="icon-print" fill="#FFFFFF">
            <path d="M17.8498403,14.5353871 L15.5782748,14.5353871 L15.5782748,17.9048345 C15.5782748,18.5410377 15.0633307,19.0567823 14.428115,19.0567823 L5.514377,19.0567823 C4.87916131,19.0567823 4.36421725,18.5410377 4.36421725,17.9048345 L4.36421725,14.5353871 L2.15015974,14.5353871 C1.51494406,14.5353871 1,14.0196425 1,13.3834392 L1,6.70214179 C1,6.06593857 1.51494406,5.55019395 2.15015974,5.55019395 L17.8498403,5.55019395 C18.4850559,5.55019395 19,6.06593857 19,6.70214179 L19,13.3834392 C19,14.0196425 18.4850559,14.5353871 17.8498403,14.5353871 L17.8498403,14.5353871 Z M16.7284345,6.6445444 C16.1090992,6.6445444 15.6070288,7.1473954 15.6070288,7.76769354 C15.6070288,8.38799168 16.1090992,8.89084268 16.7284345,8.89084268 C17.3477698,8.89084268 17.8498403,8.38799168 17.8498403,7.76769354 C17.8498403,7.1473954 17.3477698,6.6445444 16.7284345,6.6445444 L16.7284345,6.6445444 Z M5.485623,11.1659397 L14.514377,11.1659397 L14.514377,17.9336332 L5.485623,17.9336332 L5.485623,11.1659397 L5.485623,11.1659397 Z M6.63578275,12.3178875 L13.3354633,12.3178875 L13.3354633,13.4122379 L6.63578275,13.4122379 L6.63578275,12.3178875 L6.63578275,12.3178875 Z M6.63578275,14.5641858 L12.2428115,14.5641858 L12.2428115,15.6585362 L6.63578275,15.6585362 L6.63578275,14.5641858 L6.63578275,14.5641858 Z M5.54313099,1 L14.456869,1 C15.0920847,1 15.6070288,1.51574461 15.6070288,2.15194784 L15.6070288,4.39824612 L14.5176262,4.39824612 L14.514377,2.15194784 L5.485623,2.15194784 L5.48749201,4.39824612 L4.39297125,4.39824612 L4.39297125,2.15194784 C4.39297125,1.51574461 4.9079153,1 5.54313099,1 L5.54313099,1 Z" id="Shape"></path>
        </g>
    </g>
</svg>
